X: 17326
T: Hidden Note, The
R: reel
M: 4/4
K: Dmajor
|:A3F BA A2|DAFA BF F2|DAFA BD D2|B2 AG FDDB|
A3F BA A2|DAFA BF F2|DAFA BD D2|B2 AG FDDA:|
|:efed BAAg|fd (3Bcd ge e2|f2 ed BAAd|(3Bcd AG FDDA|
efed BAAg|fd (3Bcd ge e2|f2 ed BAAd|(3Bcd AG FGAc:|
|:d3c BA A2|Bded fe e2|dAAd BAAd|B2 AG FDDc|
d3c BA A2|Bded fe e2|dAAd BAAd|B2 AG FAEA:|

